X:1
T:Title
%%score { ( 1 4 ) | ( 2 3 ) }
L:1/8
Q:1/4=108
M:4/4
K:D
V:1 treble nm="Grand Piano"
V:4 treble 
V:2 bass 
V:3 bass 
V:1
 D2 D>E F2 F>G | A4 F2 f>g | a4 f2 [EG]>[DF] | [CE]4 [CE]2 [EA]>[EG] | F4 F4 | D2 D>E F2 F>G | %6
w: Geo.~C.~Hugg * * * * *||||||
 A4 F2 A>A | [Fd]4 [Ec]4 | [Fd]8 | [EA]4 [FA]4 | [DG]6 [DG]2 | F4 =F4 | F8 | [EB]4 [FB]4 | B6 d2 | %15
w: |||||||||
 c4 B4 | [A,CA]8 | dAFD A2 z2 | dAFD A2 z2 | ABcd e2 A>A |[M:9/8] c2 B- B [CA]2- [CA] [CA]2 | %21
w: ||||||
[M:4/4] [Fd][Fd][Fd][Fd] [Gd]2 [Gd]2 | [Fd]6 [=Fc][FB] | .[FA]2 .[FA]2 z2 [EG]2 | .F2 D2 z2 [FA]2 | %25
w: ||||
 B2 B2 d3 B |[M:11/8] [DFA]-[DFA]-[DFA]-[DFA]-[DFA]-[DFA]- [DFA]3 [=CDA]>[B,DG] | %27
w: ||
[M:4/4] [DF]6[K:bass] [G,CE]2 | [F,D]8 | [A,FA]2 [FB]>[Fc] [Fd]4 | [^GB]2 [Gc]>[Gd] [Ae]4 | %31
w: ||||
 [^Ac]2 [Ad]>[Ae] [Bf]2 [FB]>[FB] |[M:5/4] d2 z2 z2 z4 | %33
w: ||
[M:4/4] A2 B>c d2 [Bf]>[Be][Q:1/4=106][Q:1/4=105][Q:1/4=103][Q:1/4=102][Q:1/4=100][Q:1/4=98][Q:1/4=97] | %34
w: |
 [Ad]4 [Gc]4[Q:1/4=95][Q:1/4=94][Q:1/4=92][Q:1/4=91][Q:1/4=89][Q:1/4=87][Q:1/4=86] | %35
w: |
 [Fd]8[Q:1/4=84][Q:1/4=83] |] %36
w: |
V:2
 [D,F,]2 [D,F,]>[D,G,D] [D,A,D]2 [D,A,D]>[E,A,C] | [F,A,D]4 [D,A,D]2 z2 | z4 z2 [C,A,]>[D,A,] | %3
 [A,,A,]4 [A,,A,]2 [C,A,]>[C,A,] | [D,A,D]4 [D,A,D]4 | %5
 [D,F,]2 [D,F,]>[D,G,D] [D,A,D]2 [D,A,D]>[D,A,C] | [F,A,D]4 [D,A,D]2 [D,F,D]>[D,F,D] | [A,,A,]8 | %8
 [D,A,]8 | [C,A,]4 [D,A,]4 | [B,,G,]6 [B,,G,]2 | [C,A,C]4 [C,^G,B,]4 | [F,A,C]8 | %13
 [D,^G,]4 [^D,A,]4 | [E,^G,E]6 [E,G,E]2 | [E,A,E]4 [E,^G,D]4 | A,,8 | DA,F,D, A,2 z2 | %18
 DA,F,D, A,2 z2 | [A,G]-[A,DG][A,EG][B,E^G] [A,CA]2[K:bass] [F,B,^D]>[F,B,D] | %20
[M:9/8] .[A,E]3 z3 z3 |[M:4/4] [D,A,][D,A,][D,A,][D,A,] [D,B,]2 [D,^A,]2 | [D,A,]6 [D,^G,][D,G,] | %23
 .[D,A,]2 .[D,A,]2 z2 [C,A,]2 | .[D,A,D]2 .[D,F,]2 z2 [D,D]2 | [G,DG]2 [G,DG]2 [G,B,G]3 [G,DG] | %26
[M:11/8][K:bass] D,-D,-D,-D,-D,-D,- D,3 F,>G, |[M:4/4] A,6 A,,2 | D,8 | D,2 [D,A,]>[D,A,] [D,A,]4 | %30
 [E,E]2 [E,E]>[E,E] [A,C]4 | [F,E]2 [F,E]>[F,E] [B,D]2 [D,D]>[D,D] |[M:5/4] [F,E]4 [B,D]6 | %33
[M:4/4] A,2 B,>[K:treble]C D2 [G,D]>[G,D] | [A,F]4[K:bass] [A,E]4 | [D,D]8 |] %36
V:3
 x8 | x8 | x8 | x8 | x8 | x8 | x8 | x8 | x8 | x8 | x8 | x8 | x8 | x8 | x8 | x8 | x8 | x8 | x8 | %19
 .C2 z2 z4[K:bass] |[M:9/8] E,2- [E,^G,D]- [E,G,D] [A,,A,]2- [A,,A,] [A,,A,]2 |[M:4/4] x8 | x8 | %23
 x8 | x8 | x8 |[M:11/8][K:bass] x11 |[M:4/4] x8 | x8 | x8 | x8 | x8 |[M:5/4] x10 | %33
[M:4/4] x7/2[K:treble] x9/2 | x4[K:bass] x4 | x8 |] %36
V:4
 x8 | x8 | x8 | x8 | x8 | x8 | x8 | x8 | x8 | x8 | x8 | x8 | x8 | x8 | x8 | x8 | x8 | x8 | x8 | %19
 x8 |[M:9/8] x9 |[M:4/4] x8 | x8 | x8 | x8 | x8 |[M:11/8] x11 |[M:4/4] x6[K:bass] x2 | x8 | x8 | %30
 x8 | x8 |[M:5/4] ^A2- [Ac]2 B6 |[M:4/4] x8 | x8 | x8 |] %36

